dist/assets/img/instagram.svg

<svg viewBox="0 0 24 24" fill="none" xmlns="http://www.w3.org/2000/svg">
  <path
    d="M17 1.99915H6.99935C4.24941 1.99915 1.99902 4.24954 1.99902 6.99947V17.0006C1.99902 19.7498 4.24941 22.0009 6.99935 22.0009H17C19.7499 22.0009 22.0003 19.7498 22.0003 17.0006V6.99947C22.0003 4.24954 19.7499 1.99915 17 1.99915ZM20.3335 17.0006C20.3335 18.8382 18.8386 20.3341 17 20.3341H6.99935C5.16148 20.3341 3.66588 18.8382 3.66588 17.0006V6.99947C3.66588 5.16136 5.16148 3.666 6.99935 3.666H17C18.8386 3.666 20.3335 5.16136 20.3335 6.99947V17.0006Z"
    fill="url(#paint0_linear_2319_5257)" />
  <path
    d="M17.4177 7.83348C18.1081 7.83348 18.6677 7.2738 18.6677 6.5834C18.6677 5.893 18.1081 5.33332 17.4177 5.33332C16.7273 5.33332 16.1676 5.893 16.1676 6.5834C16.1676 7.2738 16.7273 7.83348 17.4177 7.83348Z"
    fill="url(#paint1_linear_2319_5257)" />
  <path
    d="M12.0002 6.99963C9.23805 6.99963 6.99992 9.23801 6.99992 12C6.99992 14.7609 9.23805 17.0008 12.0002 17.0008C14.7617 17.0008 17.0006 14.7609 17.0006 12C17.0006 9.23801 14.7617 6.99963 12.0002 6.99963ZM12.0002 15.3339C10.1594 15.3339 8.66678 13.8413 8.66678 12C8.66678 10.1586 10.1594 8.66649 12.0002 8.66649C13.8411 8.66649 15.3337 10.1586 15.3337 12C15.3337 13.8413 13.8411 15.3339 12.0002 15.3339Z"
    fill="url(#paint2_linear_2319_5257)" />
  <defs>
    <linearGradient id="paint0_linear_2319_5257" x1="4.39918" y1="1.99915" x2="24.0084" y2="10.4837"
      gradientUnits="userSpaceOnUse">
      <stop stop-color="#EAA16A" stop-opacity="0.983646" />
      <stop offset="1" stop-color="#BF713F" />
    </linearGradient>
    <linearGradient id="paint1_linear_2319_5257" x1="4.39918" y1="1.99915" x2="24.0084" y2="10.4837"
      gradientUnits="userSpaceOnUse">
      <stop stop-color="#EAA16A" stop-opacity="0.983646" />
      <stop offset="1" stop-color="#BF713F" />
    </linearGradient>
    <linearGradient id="paint2_linear_2319_5257" x1="4.39918" y1="1.99915" x2="24.0084" y2="10.4837"
      gradientUnits="userSpaceOnUse">
      <stop stop-color="#EAA16A" stop-opacity="0.983646" />
      <stop offset="1" stop-color="#BF713F" />
    </linearGradient>
  </defs>
</svg>

<svg viewBox="0 0 24 24" fill="none" xmlns="http://www.w3.org/2000/svg"><path d="M17 2H7C4.25 2 1.998 4.25 1.998 7v10c0 2.75 2.25 5 5 5H17c2.75 0 5-2.25 5-5V7c0-2.75-2.25-5-5-5zm3.334 15A3.337 3.337 0 0117 20.335H7a3.338 3.338 0 01-3.334-3.333V6.999a3.337 3.337 0 013.333-3.333H17a3.337 3.337 0 013.334 3.333v10.002z" fill="url(#paint0_linear_2319_5257)"/><path d="M17.418 7.833a1.25 1.25 0 100-2.5 1.25 1.25 0 000 2.5z" fill="url(#paint1_linear_2319_5257)"/><path d="M12 7a5 5 0 10.001 10 5 5 0 000-10zm0 8.334a3.334 3.334 0 110-6.668 3.334 3.334 0 010 6.668z" fill="url(#paint2_linear_2319_5257)"/><defs><linearGradient id="paint0_linear_2319_5257" x1="4.399" y1="1.999" x2="24.008" y2="10.484" gradientUnits="userSpaceOnUse"><stop stop-color="#EAA16A" stop-opacity=".984"/><stop offset="1" stop-color="#BF713F"/></linearGradient><linearGradient id="paint1_linear_2319_5257" x1="4.399" y1="1.999" x2="24.008" y2="10.484" gradientUnits="userSpaceOnUse"><stop stop-color="#EAA16A" stop-opacity=".984"/><stop offset="1" stop-color="#BF713F"/></linearGradient><linearGradient id="paint2_linear_2319_5257" x1="4.399" y1="1.999" x2="24.008" y2="10.484" gradientUnits="userSpaceOnUse"><stop stop-color="#EAA16A" stop-opacity=".984"/><stop offset="1" stop-color="#BF713F"/></linearGradient></defs></svg>
